icon/ir/green-vehicle.svg

<svg viewBox="0 0 24 24" stroke-width="1.5" fill="none" xmlns="http://www.w3.org/2000/svg" height="1em" width="1em">
  <path d="M7 10L15 10" stroke="currentColor" stroke-linecap="round" stroke-linejoin="round"/>
  <path d="M6 14L7 14" stroke="currentColor" stroke-linecap="round" stroke-linejoin="round"/>
  <path d="M15 14L16 14" stroke="currentColor" stroke-linecap="round" stroke-linejoin="round"/>
  <path d="M6 18H2V20.4C2 20.7314 2.26863 21 2.6 21H5.4C5.73137 21 6 20.7314 6 20.4V18ZM6 18H13" stroke="currentColor" stroke-linecap="round"/>
  <path d="M2 18V11.4105C2 11.1397 2.05502 10.8716 2.16171 10.6227L4.4805 5.21216C4.79566 4.47679 5.51874 4 6.31879 4H15.6812C16.4813 4 17.2043 4.47679 17.5195 5.21216L19.8383 10.6227C19.945 10.8716 20 11.1397 20 11.4105V12.5" stroke="currentColor" stroke-linecap="round"/>
  <path d="M17 23C17 23 17.9 19.8824 20 18" stroke="currentColor" stroke-linecap="round" stroke-linejoin="round"/>
  <path d="M19.8022 21.4245L19.6677 21.4372C17.9758 21.5961 16.469 20.3541 16.3021 18.663C16.1353 16.9719 17.3715 15.4721 19.0634 15.3131L22.049 15.0326C22.2406 15.0146 22.4111 15.1552 22.43 15.3466L22.6847 17.9276C22.8589 19.6929 21.5683 21.2586 19.8022 21.4245Z" stroke="currentColor" stroke-linecap="round" stroke-linejoin="round"/>
</svg>

<svg width="24" height="24" stroke-width="1.5" fill="none" xmlns="http://www.w3.org/2000/svg"><path d="M7 10h8M6 14h1M15 14h1" stroke="currentColor" stroke-linecap="round" stroke-linejoin="round"/><path d="M6 18H2v2.4a.6.6 0 0 0 .6.6h2.8a.6.6 0 0 0 .6-.6V18Zm0 0h7M2 18v-6.59a2 2 0 0 1 .162-.787l2.319-5.41A2 2 0 0 1 6.319 4h9.362a2 2 0 0 1 1.839 1.212l2.318 5.41a2 2 0 0 1 .162.789V12.5" stroke="currentColor" stroke-linecap="round"/><path d="M17 23s.9-3.118 3-5" stroke="currentColor" stroke-linecap="round" stroke-linejoin="round"/><path d="m19.802 21.424-.134.013a3.094 3.094 0 0 1-3.366-2.774 3.06 3.06 0 0 1 2.761-3.35l2.986-.28a.35.35 0 0 1 .381.314l.255 2.58a3.194 3.194 0 0 1-2.883 3.497Z" stroke="currentColor" stroke-linecap="round" stroke-linejoin="round"/></svg>
